!!!!SEGMENT: pl-wtm--r-730-15-m_moniuszko-stanislaw--gosc.krn
!!!cenid: 18xx:1695
!!!COM: Moniuszko, Stanisław
!!!COM-rismID:
!!!CDT: 1819/05/05-1872/06/04
!!!CNT: Polish
!!!OTL: Gość
!!!PDT:
!!!AGN: Secular
!!!SMS-siglum: PL-Wtm
!!!SMS-shelfmark: R 730/15/M
!!!SMS-shelfwork: W
!!!SMS-variant:
!!!SMS-altvar:
!!!NIFC-rismSourceID: 1001099806
!!!NIFC-islandoraID:
!!!URL-pdf-islandora:
!!!URL-scan:
!!!ONB-nifc: Skan 0020-0021, No. 767
!!!AIN: 1 forte 1 vox
!!!key:
**kern	**kern	**kern	**text	**text	**text
*part2	*part2	*part1	*part1	*part1	*part1
*staff3	*staff2	*staff1	*staff1	*staff1	*staff1
*Iforte	*Iempty	*Ivox	*	*	*
*I"[Fortepian]	*	*I"[Głos]	*	*	*
*I'pf	*	*I'V	*	*	*
*clefF4	*clefG2	*clefG2	*	*	*
*k[b-]	*k[b-]	*k[b-]	*	*	*
*d:	*d:	*d:	*	*	*
*M2/4	*M2/4	*M2/4	*	*	*
*>[A,A,A,B]	*>[A,A,A,B]	*>[A,A,A,B]	*	*	*
=1	=1	=1	=1	=1	=1
*>A	*>A	*>A	*	*	*
!!LO:TX:t=P:problem:all\right:global
!	!	!LO:TX:a:i:t=Gość /&colon;z Piosnek dalekich&colon;/	!	!	!
4F\	8r	2r	.	.	.
.	8c/ 8f 8a	.	.	.	.
4E\	8r	.	.	.	.
.	8c#X/ 8g 8a	.	.	.	.
=2	=2	=2	=2	=2	=2
4D\	8r	4r	.	.	.
.	8d/ 8f 8a	.	.	.	.
4C#X/	8r	8a/	Bla-	.	.
.	8e/ 8g 8a	8a/	-de	.	.
=3	=3	=3	=3	=3	=3
*^	*	*	*	*	*
*	*2\right	*	*	*	*	*
8ryy	2D\	8r	8a/	słoń-	le-	mi-
8B-/L	.	8d/L 8g	8g/	-ce	-ci	-ły
8G/	.	8d/ 8b-	8b-/	za	pta-	goś-
8B-/J	.	8d/J 8g	8g/	chmu-	-szek	-ciu
*v	*v	*	*	*	*	*
=4	=4	=4	=4	=4	=4
2D\	8r	8a/	-ra-	chy-	dzię-
*	*tremolo	*	*	*	*
.	8A</ 8d 8fL	8dd\	-mi	-ży	-ki
.	8A/ 8d 8f	8.ff\	wiatr	pie-	miesz-
.	8A/ 8d 8fJ	.	.	.	.
*	*Xtremolo	*	*	*	*
.	.	16ee\	do-	-kny	-kay
=5	=5	=5	=5	=5	=5
2GG/	8r	8dd\	-li-	pta-	przy
*	*tremolo	*	*	*	*
.	8c#X/ 8e 8gL	8cc#X\	-nę	-szek	mnie
.	8c#X/ 8e 8g	8bn\	zbiegł	do	pod
.	8c#X/ 8e 8gJ	8cc#\	od-	mnie	tym
*	*Xtremolo	*	*	*	*
=6	=6	=6	=6	=6	=6
8DD/	8r	8dd\	-lud-	dą-	drze-
8r	8A</ 8d 8f	8a/	-ną	-ży	-wem
4D\	8r	8.dd\	cze-	to	bę-
.	8A</ 8c 8f#X	.	.	.	.
.	.	16cc\	-goś	pod-	-dziesz
=7	=7	=7	=7	=7	=7
4GG/ 4D	8r	8cc\	o-	-le-	pro-
.	8B-/ 8g	8b-\	-ko	-ci	-so
4C#X\	8r	8a/	za-	to	jadł
.	8A/ 8e 8g	8g/	-szło	się	z_mey
!!LO:LB:g=original
=8	=8	=8	=8	=8	=8
2D\	8r	8g/	łza-	zni-	rę-
*	*tremolo	*	*	*	*
.	8A/ 8d 8fL	8f/	-mi	-ży	-ki,
.	8A/ 8d 8f	8e/	cze-	to	i
.	8A/ 8d 8fJ	8f/	-goś	przy	mnie
*	*Xtremolo	*	*	*	*
=9	=9	=9	=9	=9	=9
4AA/	8r	8a/	w_ser-	cha-	cie-
.	8A/ 8d 8e	8e/	-cu	-tce	-szył
4A\	8r	8.a/	smu-	w_ko-	mi-
.	8c#X/ 8e 8g	.	.	.	.
.	.	16g/	-tno	-ło	-łym
=10	=10	=10	=10	=10	=10
4.D\	8r	8f#X/	nu-	krą-	spie-
*	*tremolo	*	*	*	*
.	8d/ 8f#XL	8a/	-dno	-ży	-wem,
.	8d/ 8f#X	8.dd\	cze-	to	bę-
8c\	8d/ 8f#XJ	.	.	.	.
*	*Xtremolo	*	*	*	*
.	.	16cc\	-goś	pod-	-dziesz
=11	=11	=11	=11	=11	=11
4GG/	8r	8b-/	o-	-le-	pro-
.	8B-/ 8d 8g	16a/LL	-ko	-ci	-so
.	.	16b-/JJ	.	.	.
4C#X/	8r	16a/LL	za-	to	jadł
.	.	16g/JJ	.	.	.
.	8A/ 8e 8g	16f/LL	-czło	się	z_mey
.	.	16e/JJ	.	.	.
=12	=12	=12	=12	=12	=12
4D\	8r	8g/	łza-	zni-	rę-
.	8A/ 8d 8f	8f/	-mi	-ży	-ki
4GG/	8r	8f/	cze-	to	i
.	8G/ 8B- 8d	8e/	-goś	przy	mnie
=13	=13	=13	=13	=13	=13
4AA\	4F</ N[<4A< (>4d	8d/	w_ser-	cha-	cie-
.	.	16c#X/LL	.	-tce	-szył
.	.	16d/JJ	.	.	.
!	!LO:SIC:v:n=2:s=8c#	!	!	!	!
8r	8A/LN] 8c) 8e	16e/LL	-cu	w_ko-	mi-
.	.	16b-/JJ	smu-	.	.
!	!LO:SIC:v:n=a:s=8c#	!	!	!	!
8AA\ 8E 8G	8c/J 8a	8a/	-tno	-ło	-łym
=14	=14	=14	=14	=14	=14
2D\	8r	8a/	nu-	krą-	spie-
*	*tremolo	*	*	*	*
.	8A</ 8d 8fL	8d/	-dno	-ży	-wem
.	8A</ 8d 8f	8e/	Przy-	cze-	z_lis-
.	8A</ 8d 8fJ	8f/	-szła	-goż	-tków
*	*Xtremolo	*	*	*	*
!!LO:LB:g=original
=15	=15	=15	=15	=15	=15
2C/	8r	8g/	ja-	cze-	zbio-
*	*tremolo	*	*	*	*
.	8G/ 8B- 8eL	16a/LL	-kaś	-go	-rę
.	.	16g/JJ	.	.	.
.	8G/ 8B- 8e	8f#X/	mi	w_smu-	ro-
.	8G/ 8B- 8eJ	8g/	pio-	-tny	-sę
*	*Xtremolo	*	*	*	*
=16	=16	=16	=16	=16	=16
2FF/ 2C	8r	8b-/	-sen-	do-	to-
*	*tremolo	*	*	*	*
.	8A/ 8fL	8a/	-ka	-mek	-bie
.	8A/ 8f	8g/	a-	pie-	na-
.	8A/ 8fJ	8a/	-le	-kny	-po-
*	*Xtremolo	*	*	*	*
=17	=17	=17	=17	=17	=17
2EE/ 2C	8r	8.cc\	wro-	pta-	-ią
*	*tremolo	*	*	*	*
.	8B-/ 8gL	.	.	.	.
.	.	16b-\	-ny	-szku	Cię
.	8B-/ 8g	8a/	ię-	tak	mo-
.	8B-/ 8gJ	8g/	-ły	za-	-ie
*	*Xtremolo	*	*	*	*
=18	=18	=18	=18	=18	=18
!	!LO:TX:t=P:problem=mixed beam	!	!	!	!
4FF/ 4C	8A/L 8a	8dd\	kra-	-glą-	dło-
.	8cc\J	8cc\	-kać	-dasz	-nie
8r	8r	8cc\	sią-	w_dzio-	w_u-
8A\ 8c	8f/	8cc\	-dę	-bku	-pał
=19	=19	=19	=19	=19	=19
8G\L 8B-	8e/L	8cc\	z_chus-	trzy-	cień
8F\ 8A	8f/	8cc\	-tką	-masz	gęś-
8E\ 8G	8g/	8cc\	u	kilk-	-ciey-
8E-X\J 8F	8a/J	8cc\	o-	-ka	-szy
=20	=20	=20	=20	=20	=20
4D\ 4F	8b-\L	8cc\	-kien-	sło-	zro-
.	8ff\J	8b-\	-ka	-mek	-bię
4C#X\ 4E	8a\L	8a/	bę-	czy	i
.	8ff\J	8g/	-dę	tu	od
=21	=21	=21	=21	=21	=21
4D\	8r	8f/	so-	gnia-	desz-
.	8a\L 8ff	8e/	-bie	-zdo	-czów
8r	8f\J 8dd	8f/	du-	u-	Cię
8B-\	8d/ 8b-	8g/	-mać	-słać	za-
=22	=22	=22	=22	=22	=22
8A\L	8c#X/L 8g	8a/	pła-	żą-	-sło-
8D\ 8A	8d/ 8f	8cc\	-kać.	-dasz	-nię
!LO:N:n=1:acc=#	!	!	!	!	!
8BBn\ 8G	8c#/ 8e	8a/	Le-	Dzię-	Tyl-
8AA\J 8A	8c#X/J 8g	8a/	-ci	-ki	-ko
!!LO:PB:g=original
=23:|!	=23:|!	=23:|!	=23:|!	=23:|!	=23:|!
*>B	*>B	*>B	*	*	*
2D\	8r	8a/	u-	.	.
.	8d/L 8g	8g/	-kryi	.	.
.	8d/ 8b-	8b-/	gnia-	.	.
.	8d/J 8g	8g/	-zdo	.	.
=24	=24	=24	=24	=24	=24
2D\	8r	8a/	swo-	.	.
*	*tremolo	*	*	*	*
.	8A</ 8d 8fL	8dd\	-ie	.	.
.	8A</ 8d 8f	8.ff\	przed	.	.
.	8A</ 8d 8fJ	.	.	.	.
*	*Xtremolo	*	*	*	*
.	.	16ee\	ma-	.	.
=25	=25	=25	=25	=25	=25
2AA\ 2A	8r	8dd\	-co-	.	.
*	*tremolo	*	*	*	*
.	8c#X/ 8e 8gL	8cc#X\	-chą	.	.
.	8c#X/ 8e 8g	8bn\	przed	.	.
.	8c#X/ 8e 8gJ	8cc#\	nią	.	.
*	*Xtremolo	*	*	*	*
=26	=26	=26	=26	=26	=26
4D\ 4A	8r	8dd\	ied-	.	.
.	8d/ 8f	8a/	-ną,	.	.
4D\	8r	8.dd\	bo	.	.
.	8A</ 8c 8f#X	.	.	.	.
.	.	16cc\	prze-	.	.
=27	=27	=27	=27	=27	=27
4GG\ 4D	8r	8cc\	-klę-	.	.
.	8B-/ 8g	8b-\	-ła	.	.
4C#X\	8r	8a/	by	.	.
.	8A/ 8e 8g	8g/	nas	.	.
=28	=28	=28	=28	=28	=28
2D\	8r	8g/	dwo-	.	.
*	*tremolo	*	*	*	*
.	8A/ 8d 8fL	8f/	-ie	.	.
.	8A/ 8d 8f	8e/	Cie-	.	.
.	8A/ 8d 8fJ	8f/	-bie	.	.
*	*Xtremolo	*	*	*	*
=29	=29	=29	=29	=29	=29
4AA/	8r	8a/	pta-	.	.
.	8c#X/ 8e 8a	8g/	-szku	.	.
4A\	8r	8b-/	i	.	.
.	8c#/ 8e 8g	16a/LL	mnie	.	.
.	.	16g/JJ	.	.	.
=30	=30	=30	=30	=30	=30
*	*^	*	*	*	*
4D\	8r	8ryy	8d#X/	bied-	.	.
.	8f/L	4d\	8ee-X\	-ną	.	.
8E\L	8f/	.	8dd\	bo	.	.
!	!	!LO:N:vis=4	!	!	!	!
8F#X\J	8a/J	8d\	8cc\	prze-	.	.
*	*v	*v	*	*	*	*
!!LO:LB:g=original
=31	=31	=31	=31	=31	=31
4F\	8r	8b-/	-klę-	.	.
.	8d/ 8g 8b-	16a/LL	-ła-	.	.
.	.	16b-/JJ	.	.	.
4C#X/	8r	16a/LL	-by	.	.
.	.	16g/JJ	.	.	.
.	8A</ 8e 8a	16f/LL	nas	.	.
.	.	16e/JJ	.	.	.
=32	=32	=32	=32	=32	=32
4D\	8r	8g/	dwo-	.	.
.	8A/ 8d 8f	8f/	-ie	.	.
4GG/	8r	8f/	Cie-	.	.
.	8G/ 8B- 8e	8e/	-bie	.	.
=33	=33	=33	=33	=33	=33
4AA/	4F/ 4d	8d/	ptasz-	.	.
.	.	16c#X/LL	.	.	.
.	.	16d/JJ	.	.	.
8r	8A/L 8c#X 8e	16e/LL	-ku	.	.
.	.	16b-/JJ	i	.	.
8GG\ 8G	8c#/J 8e 8a	8a/	mnie	.	.
=34	=34	=34	=34	=34	=34
4D\ 4F	8d/ 8f	2a/	bie-	.	.
.	8d/L 8f	.	.	.	.
4r	8d/ 8f 8a	.	.	.	.
.	8f/J 8a 8dd	.	.	.	.
=35	=35	=35	=35	=35	=35
4r	4a\ 4dd 4ff	4d/	-dną.	.	.
!LO:N:vis=8	!LO:N:vis=8	!	!	!	!
8.r	8.r	4ryy	.	.	.
16D\ 16F 16A	16d/	.	.	.	.
=36	=36	=36	=36	=36	=36
2D\ 2F 2A	2d/	2r	.	.	.
!!LO:LB:g=original
==	==	==	==	==	==
*-	*-	*-	*-	*-	*-
!!!system-decoration: s1{(s2,s3)}
!!!RDF**kern: < = below
!!!RDF**kern: > = above
!!!RDF**kern: N = linked
!!!ENC: Marta Chmielewska
!!!END: 2021-04-19
!!!ENC: Mateusz Solarz
!!!END: 2021-03-31
